X: 13
T:N'OUBLIE PAS
M:3/4
L:1/8
Q:1/4=120
C:alain PENNEC
K:C
|:eAc eab|aAc eba|eAc eae|d3 d3|d3/2 z/2 e ded|cAB cBA|1BEB dcd|e3 e2e/2
z/2:|2BEB dcB|A3 A3|!
|:AEA cec|AEA cec|d3/2 z/2 e dcd|1e3/2 z/2 c3/2 z/2 B3/2 z/2 :|2B3 B3:|!
|3e3/2 z/2 c3/2 z/2 B3/2 z/2|e3/2 z/2 d3/2 z/2 c3/2 z/2 |dGB dBG|AEA cec
|A3 A3|
